assets/post/images/constellation4.svg

<svg xmlns="http://www.w3.org/2000/svg" width="1195" height="1129" overflow="hidden"><defs><clipPath id="a"><path d="M1426 437h1195v1129H1426z"/></clipPath></defs><g clip-path="url(#a)" transform="translate(-1426 -437)"><path fill="none" stroke="#000" stroke-miterlimit="8" stroke-width="9.167" d="M1426.5 1015.5h1189.38m-629.38 550.44V462.5"/><path fill="#d74514" fill-rule="evenodd" d="M2325 1013.5c0-24.024 19.48-43.5 43.5-43.5s43.5 19.476 43.5 43.5c0 24.02-19.48 43.5-43.5 43.5s-43.5-19.48-43.5-43.5"/><text fill="#d74514" font-family="Microsoft YaHei,Microsoft YaHei_MSFontService,sans-serif" font-size="73" font-weight="700" transform="translate(2340.28 927)">1</text><path fill-rule="evenodd" d="M2563.5 1074h14.25l-.39 1.75c-.9.19-1.55.4-1.94.64s-.74.59-1.05 1.07-.63 1.22-.96 2.23c-.34 1.01-.75 2.65-1.25 4.93l-6.1 27.66c-.31 1.41-.51 2.52-.6 3.34-.1.82-.15 1.56-.15 2.23 0 1.06.27 1.82.81 2.26.53.44 1.43.71 2.69.8l-.39 1.75h-14.26l.39-1.75c.9-.14 1.58-.37 2.03-.69s.83-.77 1.14-1.34.6-1.27.86-2.09.65-2.4 1.17-4.75l6.06-27.45c.53-2.38.79-4.29.79-5.74 0-1.12-.28-1.89-.84-2.33s-1.44-.7-2.66-.77Z"/><text x="2554.16" y="1116.58" fill-opacity="0" font-family="Arial,Arial_MSFontService,sans-serif" font-size="48.655">𝐼</text><path fill-rule="evenodd" d="M2058.77 478.84c-2.57 0-4.96.915-7.18 2.745-2.23 1.829-4.17 4.443-5.85 7.841-1.67 3.399-2.98 7.129-3.9 11.193-.93 4.063-1.39 7.652-1.39 10.764 0 7.343 2.67 11.015 8.02 11.015q4.95 0 9.09-4.616 4.125-4.617 6.66-12.779c1.69-5.442 2.53-10.527 2.53-15.256 0-3.54-.65-6.243-1.96-8.109-1.3-1.865-3.31-2.798-6.02-2.798m.39-3.137c4.59 0 8.12 1.331 10.6 3.992 2.49 2.662 3.73 6.512 3.73 11.549 0 3.327-.52 7.046-1.57 11.157-1.04 4.111-2.48 7.741-4.31 10.889q-2.745 4.724-6.36 7.611-3.63 2.886-7.86 3.992.81 2.601 1.53 4.295c.47 1.129.93 2.044 1.37 2.745s.87 1.223 1.3 1.568q.645.516 1.29.695c.42.119.92.178 1.49.178.91 0 1.82-.261 2.75-.784.92-.523 1.96-1.426 3.1-2.709l1.85 1.996q-2.85 3.102-5.31 4.384c-1.64.856-3.33 1.284-5.06 1.284q-2.955 0-4.83-1.319t-3.24-4.206c-.92-1.925-1.8-4.444-2.66-7.557q-6.45-.357-9.84-4.277c-2.26-2.614-3.38-6.297-3.38-11.05q0-5.347 1.8-12.084c1.2-4.491 2.93-8.453 5.2-11.887q3.405-5.151 8.13-7.806c3.15-1.77 6.57-2.656 10.28-2.656"/><text x="2033.75" y="530.689" fill-opacity="0" font-family="Arial,Arial_MSFontService,sans-serif" font-size="62.841">𝑄</text><path fill="#d74514" fill-rule="evenodd" d="M1634 1013.5c0-24.024 19.48-43.5 43.5-43.5s43.5 19.476 43.5 43.5c0 24.02-19.48 43.5-43.5 43.5s-43.5-19.48-43.5-43.5"/><text fill="#d74514" font-family="Microsoft YaHei,Microsoft YaHei_MSFontService,sans-serif" font-size="73" font-weight="700" transform="translate(1649.05 927)">0</text></g></svg>

<svg width="1195" height="1129" xmlns="http://www.w3.org/2000/svg" xmlns:xlink="http://www.w3.org/1999/xlink" overflow="hidden"><defs><clipPath id="clip0"><rect x="1426" y="437" width="1195" height="1129"/></clipPath></defs><g clip-path="url(#clip0)" transform="translate(-1426 -437)"><path d="M1426.5 1015.5 2615.88 1015.5" stroke="#000000" stroke-width="9.16667" stroke-miterlimit="8" fill="none" fill-rule="evenodd"/><path d="M0 0 0.000360892 1103.44" stroke="#000000" stroke-width="9.16667" stroke-miterlimit="8" fill="none" fill-rule="evenodd" transform="matrix(1 0 0 -1 1986.5 1565.94)"/><path d="M2325 1013.5C2325 989.476 2344.48 970 2368.5 970 2392.52 970 2412 989.476 2412 1013.5 2412 1037.52 2392.52 1057 2368.5 1057 2344.48 1057 2325 1037.52 2325 1013.5Z" fill="#D74514" fill-rule="evenodd"/><text fill="#D74514" font-family="Microsoft YaHei,Microsoft YaHei_MSFontService,sans-serif" font-weight="700" font-size="73" transform="matrix(1 0 0 1 2340.28 927)">1</text><path d="M2563.5 1074 2577.75 1074 2577.36 1075.75C2576.46 1075.94 2575.81 1076.15 2575.42 1076.39 2575.03 1076.63 2574.68 1076.98 2574.37 1077.46 2574.06 1077.94 2573.74 1078.68 2573.41 1079.69 2573.07 1080.7 2572.66 1082.34 2572.16 1084.62L2566.06 1112.28C2565.75 1113.69 2565.55 1114.8 2565.46 1115.62 2565.36 1116.44 2565.31 1117.18 2565.31 1117.85 2565.31 1118.91 2565.58 1119.67 2566.12 1120.11 2566.65 1120.55 2567.55 1120.82 2568.81 1120.91L2568.42 1122.66 2554.16 1122.66 2554.55 1120.91C2555.45 1120.77 2556.13 1120.54 2556.58 1120.22 2557.03 1119.9 2557.41 1119.45 2557.72 1118.88 2558.03 1118.31 2558.32 1117.61 2558.58 1116.79 2558.84 1115.97 2559.23 1114.39 2559.75 1112.04L2565.81 1084.59C2566.34 1082.21 2566.6 1080.3 2566.6 1078.85 2566.6 1077.73 2566.32 1076.96 2565.76 1076.52 2565.2 1076.08 2564.32 1075.82 2563.1 1075.75Z" fill-rule="evenodd"/><text fill="#000000" fill-opacity="0" font-family="Arial,Arial_MSFontService,sans-serif" font-size="48.6548" x="2554.16" y="1116.58">𝐼</text><path d="M2058.77 478.84C2056.2 478.84 2053.81 479.755 2051.59 481.585 2049.36 483.414 2047.42 486.028 2045.74 489.426 2044.07 492.825 2042.76 496.555 2041.84 500.619 2040.91 504.682 2040.45 508.271 2040.45 511.383 2040.45 518.726 2043.12 522.398 2048.47 522.398 2051.77 522.398 2054.8 520.859 2057.56 517.782 2060.31 514.704 2062.53 510.445 2064.22 505.003 2065.91 499.561 2066.75 494.476 2066.75 489.747 2066.75 486.207 2066.1 483.504 2064.79 481.638 2063.49 479.773 2061.48 478.84 2058.77 478.84ZM2059.16 475.703C2063.75 475.703 2067.28 477.034 2069.76 479.695 2072.25 482.357 2073.49 486.207 2073.49 491.244 2073.49 494.571 2072.97 498.29 2071.92 502.401 2070.88 506.512 2069.44 510.142 2067.61 513.29 2065.78 516.439 2063.66 518.976 2061.25 520.901 2058.83 522.825 2056.21 524.156 2053.39 524.893 2053.93 526.627 2054.44 528.059 2054.92 529.188 2055.39 530.317 2055.85 531.232 2056.29 531.933 2056.73 532.634 2057.16 533.156 2057.59 533.501 2058.02 533.845 2058.45 534.077 2058.88 534.196 2059.3 534.315 2059.8 534.374 2060.37 534.374 2061.28 534.374 2062.19 534.113 2063.12 533.59 2064.04 533.067 2065.08 532.164 2066.22 530.881L2068.07 532.877C2066.17 534.945 2064.4 536.406 2062.76 537.261 2061.12 538.117 2059.43 538.545 2057.7 538.545 2055.73 538.545 2054.12 538.105 2052.87 537.226 2051.62 536.347 2050.54 534.945 2049.63 533.02 2048.71 531.095 2047.83 528.576 2046.97 525.463 2042.67 525.225 2039.39 523.8 2037.13 521.186 2034.87 518.572 2033.75 514.889 2033.75 510.136 2033.75 506.571 2034.35 502.544 2035.55 498.052 2036.75 493.561 2038.48 489.599 2040.75 486.165 2043.02 482.731 2045.73 480.129 2048.88 478.359 2052.03 476.589 2055.45 475.703 2059.16 475.703Z" fill-rule="evenodd"/><text fill="#000000" fill-opacity="0" font-family="Arial,Arial_MSFontService,sans-serif" font-size="62.8413" x="2033.75" y="530.689">𝑄</text><path d="M1634 1013.5C1634 989.476 1653.48 970 1677.5 970 1701.52 970 1721 989.476 1721 1013.5 1721 1037.52 1701.52 1057 1677.5 1057 1653.48 1057 1634 1037.52 1634 1013.5Z" fill="#D74514" fill-rule="evenodd"/><text fill="#D74514" font-family="Microsoft YaHei,Microsoft YaHei_MSFontService,sans-serif" font-weight="700" font-size="73" transform="matrix(1 0 0 1 1649.05 927)">0</text></g></svg>
